X: 1
T: Broken Window, The
M: 2/4
L: 1/8
R:jig
K: Amix
A2 |cA F2E2 |A2 cA F3|A2cAF2|E2ABA2|:
e2 fe A2|e2 fe B4|e2 fe c2|A2 B A3|
 :|
